packages/sources/icons/src/vitamix/close-line.svg

<svg width="16" height="16" viewBox="0 0 16 16" fill="none" xmlns="http://www.w3.org/2000/svg">
<path d="M8 7.05734L11.3 3.75734L12.2427 4.70001L8.94267 8.00001L12.2427 11.3L11.3 12.2427L8 8.94267L4.7 12.2427L3.75734 11.3L7.05734 8.00001L3.75734 4.70001L4.7 3.75734L8 7.05734Z" fill="#001018"/>
</svg>

<svg width="16" height="16" fill="none" xmlns="http://www.w3.org/2000/svg"><path d="m8 7.057 3.3-3.3.943.943-3.3 3.3 3.3 3.3-.943.943-3.3-3.3-3.3 3.3-.943-.943 3.3-3.3-3.3-3.3.943-.943 3.3 3.3z" fill="#001018"/></svg>
